X:1
T:Southwind
T:An Ghaoth Aneas
R:waltz
Z:By Phil Sexton
M:6/8
L:1/8
K:G
|:c|"G"BAG Bcd|"D7"A2A ABc|"G"BAG "C"EDE|"G"G2 "C"G"G"G2:|!
d|g2"D7"g "C"gf"D7"e|"G"d2"A7"d "D"d2"D7"c|"G"BAG Bcd|"A7"A2A "D7"ABd|!
"G"g2"D7"g "C"gf"D7"e|"G"d2"A7"d "D"d2"D7"c|"G"BAG "D7"AcF|
"G"G2"C"G "G"G2||

